; HEADER_BLOCK_START
; generated by ElegooSlicer 1.3.0.11 on 2026-04-09 at 19:48:19
; total layer number: 253
; filament_density: 1.25
; filament_diameter: 1.75
; max_z_height: 50.60
; HEADER_BLOCK_END



; THUMBNAIL_BLOCK_START

;
; THUMBNAIL_BLOCK_END

; external perimeters extrusion width = 0.42mm
; perimeters extrusion width = 0.45mm
; infill extrusion width = 0.45mm
; solid infill extrusion width = 0.42mm
; top infill extrusion width = 0.42mm
; first layer extrusion width = 0.50mm

; EXECUTABLE_BLOCK_START
EXCLUDE_OBJECT_DEFINE NAME=Cube_id_0_copy_0 CENTER=128,128 POLYGON=[[115.2,115.2],[140.8,115.2],[140.8,140.8],[115.2,140.8],[115.2,115.2]]
M73 P0 R20
M106 S0
M106 P2 S0
;TYPE:Custom
;;===== date: 20251011 =====================
;printer_model:Elegoo Centauri Carbon
;initial_filament:PLA
;curr_bed_type:Textured PEI Plate
;bed_level_temp:60
M400 ; wait for buffer to clear
M220 S100 ;Set the feed speed to 100%
M221 S100 ;Set the flow rate to 100%
M104 S140
M140 S60
G90
G28 ;home
M729 ;Clean Nozzle
M190 S60


;=============turn on fans to prevent PLA jamming=================

    
    M106 P3 S255
    ;Prevent PLA from jamming


;enable_pressure_advance:false
;This value is called if pressure advance is enabled

M204 S5000 ;Call exterior wall print acceleration


G1 X128 Y-1.2 F20000
G1 Z0.3 F900
M109 S225
M83
G92 E0 ;Reset Extruder
G1 F6000 
G1 X-1.2 E10.156 ;Draw the first line
G1 Y98.8 E7.934
G1 X-0.5 Y100 E0.1
G1 Y-0.3 E7.934
G1 X78 E6.284
G1 F1680 
G1 X98 E2
G1 F8400 
G1 X118 E2
G1 F1680 
G1 X138 E2
G1 F8400 
G1 X158 E2
G1 F8400 
G1 X178 E2
;End PA test.


G3 I-1 J0 Z0.6 F1200.0 ;Move to side a little
G1 F20000
G92 E0 ;Reset Extruder
;LAYER_COUNT:253
;LAYER:0
M106 P3 S255
G90
G21
M83 ; use relative distances for extrusion
; filament start gcode
M106 P3 S200


M106 P2 S0
;LAYER_CHANGE
;Z:0.2
;HEIGHT:0.2
;BEFORE_LAYER_CHANGE
;0.2
G92 E0

G1 E-.8 F1800
;LAYER:1

;_SET_FAN_SPEED_CHANGING_LAYER
SET_VELOCITY_LIMIT ACCEL=500
EXCLUDE_OBJECT_START NAME=Cube_id_0_copy_0
G1 X139.079 Y139.079 F30000
G1 Z.6
G1 Z.2
G1 E.8 F1800
;TYPE:Inner wall
;WIDTH:0.5
G1 F3000
G1 X116.921 Y139.079 E.80053
G1 X116.921 Y116.921 E.80053
G1 X139.079 Y116.921 E.80053
G1 X139.079 Y139.039 E.79908
G1 X139.536 Y139.536 F30000
G1 F3000
G1 X116.464 Y139.536 E.83355
G1 X116.464 Y116.464 E.83355
G1 X139.536 Y116.464 E.83355
G1 X139.536 Y139.496 E.83211
G1 X139.993 Y139.993 F30000
G1 F3000
G1 X116.007 Y139.993 E.86658
G1 X116.007 Y116.007 E.86658
M73 P1 R20
G1 X139.993 Y116.007 E.86658
G1 X139.993 Y139.953 E.86513
G1 X140.45 Y140.45 F30000
;TYPE:Outer wall
G1 F3000
G1 X115.55 Y140.45 E.89961
G1 X115.55 Y115.55 E.89961
G1 X140.45 Y115.55 E.89961
G1 X140.45 Y140.41 E.89816
G1 E-.728 F1800
;WIPE_START
G1 F30000
G1 X139.25 Y140.412 E-.072
;WIPE_END
G1 X139.113 Y132.781 Z.6
G1 X138.85 Y118.078 Z.6
G1 Z.2
G1 E.8 F1800
;TYPE:Bottom surface
;WIDTH:0.50193
G1 F6300
G1 X138.128 Y117.355 E.03707
G1 X137.479 Y117.355 E.02355
G1 X138.645 Y118.521 E.05982
G1 X138.645 Y119.17 E.02355
G1 X136.83 Y117.355 E.09313
G1 X136.18 Y117.355 E.02355
G1 X138.645 Y119.82 E.12643
G1 X138.645 Y120.469 E.02355
G1 X135.531 Y117.355 E.15974
G1 X134.882 Y117.355 E.02355
G1 X138.645 Y121.118 E.19305
G1 X138.645 Y121.767 E.02355
G1 X134.233 Y117.355 E.22635
G1 X133.584 Y117.355 E.02355
G1 X138.645 Y122.416 E.25966
G1 X138.645 Y123.065 E.02355
G1 X132.935 Y117.355 E.29297
G1 X132.286 Y117.355 E.02355
G1 X138.645 Y123.714 E.32628
G1 X138.645 Y124.364 E.02355
G1 X131.636 Y117.355 E.35958
G1 X130.987 Y117.355 E.02355
G1 X138.645 Y125.013 E.39289
G1 X138.645 Y125.662 E.02355
G1 X130.338 Y117.355 E.4262
G1 X129.689 Y117.355 E.02355
G1 X138.645 Y126.311 E.4595
G1 X138.645 Y126.96 E.02355
G1 X129.04 Y117.355 E.49281
G1 X128.391 Y117.355 E.02355
G1 X138.645 Y127.609 E.52612
G1 X138.645 Y128.258 E.02355
G1 X127.742 Y117.355 E.55942
G1 X127.092 Y117.355 E.02355
G1 X138.645 Y128.908 E.59273
G1 X138.645 Y129.557 E.02355
G1 X126.443 Y117.355 E.62604
G1 X125.794 Y117.355 E.02355
G1 X138.645 Y130.206 E.65935
G1 X138.645 Y130.855 E.02355
G1 X125.145 Y117.355 E.69265
G1 X124.496 Y117.355 E.02355
G1 X138.645 Y131.504 E.72596
G1 X138.645 Y132.153 E.02355
G1 X123.847 Y117.355 E.75927
G1 X123.198 Y117.355 E.02355
G1 X138.645 Y132.802 E.79257
G1 X138.645 Y133.451 E.02355
G1 X122.549 Y117.355 E.82588
G1 X121.899 Y117.355 E.02355
M73 P2 R20
G1 X138.645 Y134.101 E.85919
G1 X138.645 Y134.75 E.02355
G1 X121.25 Y117.355 E.89249
G1 X120.601 Y117.355 E.02355
G1 X138.645 Y135.399 E.9258
G1 X138.645 Y136.048 E.02355
G1 X119.952 Y117.355 E.95911
G1 X119.303 Y117.355 E.02355
G1 X138.645 Y136.697 E.99242
G1 X138.645 Y137.346 E.02355
G1 X118.654 Y117.355 E1.02572
G1 X118.005 Y117.355 E.02355
G1 X138.645 Y137.995 E1.05903
G1 X138.644 Y138.645 E.02355
G1 X117.355 Y117.356 E1.09233
G1 X117.355 Y118.005 E.02355
G1 X137.995 Y138.645 E1.05903
G1 X137.346 Y138.645 E.02355
G1 X117.355 Y118.654 E1.02572
G1 X117.355 Y119.303 E.02355
G1 X136.697 Y138.645 E.99241
G1 X136.048 Y138.645 E.02355
G1 X117.355 Y119.952 E.9591
G1 X117.355 Y120.601 E.02355
G1 X135.399 Y138.645 E.9258
G1 X134.75 Y138.645 E.02355
G1 X117.355 Y121.25 E.89249
G1 X117.355 Y121.899 E.02355
G1 X134.101 Y138.645 E.85918
G1 X133.451 Y138.645 E.02355
G1 X117.355 Y122.549 E.82588
G1 X117.355 Y123.198 E.02355
G1 X132.802 Y138.645 E.79257
G1 X132.153 Y138.645 E.02355
G1 X117.355 Y123.847 E.75926
G1 X117.355 Y124.496 E.02355
G1 X131.504 Y138.645 E.72595
G1 X130.855 Y138.645 E.02355
G1 X117.355 Y125.145 E.69265
G1 X117.355 Y125.794 E.02355
G1 X130.206 Y138.645 E.65934
G1 X129.557 Y138.645 E.02355
G1 X117.355 Y126.443 E.62603
G1 X117.355 Y127.093 E.02355
G1 X128.907 Y138.645 E.59273
G1 X128.258 Y138.645 E.02355
G1 X117.355 Y127.742 E.55942
G1 X117.355 Y128.391 E.02355
G1 X127.609 Y138.645 E.52611
G1 X126.96 Y138.645 E.02355
G1 X117.355 Y129.04 E.49281
G1 X117.355 Y129.689 E.02355
G1 X126.311 Y138.645 E.4595
G1 X125.662 Y138.645 E.02355
G1 X117.355 Y130.338 E.42619
G1 X117.355 Y130.987 E.02355
G1 X125.013 Y138.645 E.39288
G1 X124.363 Y138.645 E.02355
M73 P3 R20
G1 X117.355 Y131.637 E.35958
G1 X117.355 Y132.286 E.02355
G1 X123.714 Y138.645 E.32627
G1 X123.065 Y138.645 E.02355
G1 X117.355 Y132.935 E.29296
G1 X117.355 Y133.584 E.02355
G1 X122.416 Y138.645 E.25966
G1 X121.767 Y138.645 E.02355
G1 X117.355 Y134.233 E.22635
G1 X117.355 Y134.882 E.02355
G1 X121.118 Y138.645 E.19304
G1 X120.469 Y138.645 E.02355
G1 X117.355 Y135.531 E.15974
G1 X117.355 Y136.181 E.02355
G1 X119.819 Y138.645 E.12643
G1 X119.17 Y138.645 E.02355
G1 X117.355 Y136.83 E.09312
G1 X117.355 Y137.479 E.02355
G1 X118.521 Y138.645 E.05981
G1 X117.872 Y138.645 E.02355
G1 X117.15 Y137.922 E.03706
;LAYER_CHANGE
;Z:0.4
;HEIGHT:0.2
;BEFORE_LAYER_CHANGE
;0.4
G92 E0

G1 E-.728 F1800
;WIPE_START
G1 F30000
G1 X117.872 Y138.645 E-.06129
G1 X118.051 Y138.645 E-.01071
;WIPE_END
EXCLUDE_OBJECT_END NAME=Cube_id_0_copy_0
;LAYER:2

;_SET_FAN_SPEED_CHANGING_LAYER
SET_VELOCITY_LIMIT ACCEL=10000
M104 S215 ; set nozzle temperature
; No need to reheat.
EXCLUDE_OBJECT_START NAME=Cube_id_0_copy_0
;G17
G3 Z.8 I-.042 J1.216
G1 X139.384 Y139.384 Z.8
G1 Z.4
G1 E.8 F1800
;TYPE:Inner wall
;WIDTH:0.45
G1 F12000
G1 X116.616 Y139.384 E.73258
G1 X116.616 Y116.616 E.73258
G1 X139.384 Y116.616 E.73258
G1 X139.384 Y139.344 E.7313
G1 X139.791 Y139.791 F30000
G1 F12000
G1 X116.209 Y139.791 E.75878
G1 X116.209 Y116.209 E.75878
G1 X139.791 Y116.209 E.75878
G1 X139.791 Y139.751 E.75749
G1 X140.198 Y140.198 F30000
G1 F12000
G1 X115.802 Y140.198 E.78498
G1 X115.802 Y115.802 E.78498
G1 X140.198 Y115.802 E.78498
G1 X140.198 Y140.158 E.78369
G1 X140.59 Y140.59 F30000
SET_VELOCITY_LIMIT ACCEL=5000
;TYPE:Outer wall
;WIDTH:0.42
G1 F9600
G1 X115.41 Y140.59 E.7505
G1 X115.41 Y115.41 E.7505
G1 X140.59 Y115.41 E.7505
G1 X140.59 Y140.55 E.74931
G1 E-.728 F1800
;WIPE_START
G1 F30000
G1 X139.39 Y140.552 E-.072
;WIPE_END
G1 X137.725 Y138.992 Z.8
G1 Z.4
G1 E.8 F1800
SET_VELOCITY_LIMIT ACCEL=10000
;TYPE:Internal solid infill
;WIDTH:0.419999
G1 F15000
G1 X138.992 Y138.992 E.03775
G1 X138.992 Y137.725 E.03775
G1 X137.753 Y138.963 E.05219
G1 E-.728 F1800
;WIPE_START
G1 F30000
G1 X138.602 Y138.115 E-.072
;WIPE_END
G1 X138.644 Y138.581 Z.8
G1 Z.4
G1 E.8 F1800
;WIDTH:0.40777
G1 F15000
G1 X138.575 Y138.621 E.00228
G1 X138.646 Y138.655 E.00228
G1 E-.79051 F1800
;WIPE_START
G1 F30000
G1 X138.575 Y138.621 E-.00475
G1 X138.644 Y138.581 E-.00474
;WIPE_END
G1 X137.016 Y139.22 Z.8
G1 Z.4
G1 E.8 F1800
;WIDTH:0.420953
G1 F15000
G1 X139.051 Y137.186 E.08597
G1 X139.051 Y136.651 E.01597
G1 X136.651 Y139.051 E.1014
G1 X136.116 Y139.051 E.01597
G1 X139.051 Y136.116 E.12399
G1 X139.051 Y135.582 E.01597
G1 X135.582 Y139.051 E.14658
G1 X135.047 Y139.051 E.01597
G1 X139.051 Y135.047 E.16917
G1 X139.051 Y134.513 E.01597
G1 X134.513 Y139.051 E.19176
G1 X133.978 Y139.051 E.01597
G1 X139.051 Y133.978 E.21436
G1 X139.051 Y133.443 E.01597
G1 X133.443 Y139.051 E.23695
G1 X132.909 Y139.051 E.01597
G1 X139.051 Y132.909 E.25954
G1 X139.051 Y132.374 E.01597
G1 X132.374 Y139.051 E.28213
G1 X131.839 Y139.051 E.01597
G1 X139.051 Y131.839 E.30472
G1 X139.051 Y131.305 E.01597
G1 X131.305 Y139.051 E.32731
G1 X130.77 Y139.051 E.01597
G1 X139.051 Y130.77 E.34991
G1 X139.051 Y130.236 E.01597
G1 X130.236 Y139.051 E.3725
G1 X129.701 Y139.051 E.01597
G1 X139.051 Y129.701 E.39509
G1 X139.051 Y129.166 E.01597
G1 X129.166 Y139.051 E.41768
G1 X128.632 Y139.051 E.01597
G1 X139.051 Y128.632 E.44027
G1 X139.051 Y128.097 E.01597
G1 X128.097 Y139.051 E.46287
G1 X127.563 Y139.051 E.01597
G1 X139.051 Y127.563 E.48546
G1 X139.051 Y127.028 E.01597
G1 X127.028 Y139.051 E.50805
G1 X126.493 Y139.051 E.01597
G1 X139.051 Y126.493 E.53064
G1 X139.051 Y125.959 E.01597
G1 X125.959 Y139.051 E.55323
G1 X125.424 Y139.051 E.01597
G1 X139.051 Y125.424 E.57582
G1 X139.051 Y124.889 E.01597
G1 X124.889 Y139.051 E.59842
G1 X124.355 Y139.051 E.01597
G1 X139.051 Y124.355 E.62101
G1 X139.051 Y123.82 E.01597
G1 X123.82 Y139.051 E.6436
G1 X123.286 Y139.051 E.01597
G1 X139.051 Y123.286 E.66619
G1 X139.051 Y122.751 E.01597
G1 X122.751 Y139.051 E.68878
G1 X122.216 Y139.051 E.01597
G1 X139.051 Y122.216 E.71138
G1 X139.051 Y121.682 E.01597
M73 P3 R19
G1 X121.682 Y139.051 E.73397
G1 X121.147 Y139.051 E.01597
G1 X139.051 Y121.147 E.75656
G1 X139.051 Y120.612 E.01597
G1 X120.612 Y139.051 E.77915
G1 X120.078 Y139.051 E.01597
G1 X139.051 Y120.078 E.80174
G1 X139.051 Y119.543 E.01597
G1 X119.543 Y139.051 E.82433
G1 X119.009 Y139.051 E.01597
G1 X139.051 Y119.009 E.84693
G1 X139.051 Y118.474 E.01597
G1 X118.474 Y139.051 E.86952
G1 X117.939 Y139.051 E.01597
G1 X139.051 Y117.939 E.89211
G1 X139.051 Y117.405 E.01597
G1 X117.405 Y139.051 E.9147
G1 X116.95 Y139.051 E.0136
G1 X116.95 Y138.971 E.00237
G1 X138.971 Y116.95 E.93058
G1 X138.436 Y116.95 E.01597
G1 X116.95 Y138.436 E.90799
G1 X116.95 Y137.902 E.01597
G1 X137.902 Y116.95 E.8854
G1 X137.367 Y116.95 E.01597
G1 X116.95 Y137.367 E.86281
G1 X116.95 Y136.833 E.01597
G1 X136.833 Y116.95 E.84022
G1 X136.298 Y116.95 E.01597
G1 X116.95 Y136.298 E.81762
G1 X116.95 Y135.763 E.01597
G1 X135.763 Y116.95 E.79503
G1 X135.229 Y116.95 E.01597
G1 X116.95 Y135.229 E.77244
G1 X116.95 Y134.694 E.01597
G1 X134.694 Y116.95 E.74985
G1 X134.16 Y116.95 E.01597
G1 X116.95 Y134.16 E.72726
G1 X116.95 Y133.625 E.01597
G1 X133.625 Y116.95 E.70467
G1 X133.09 Y116.95 E.01597
G1 X116.95 Y133.09 E.68207
G1 X116.95 Y132.556 E.01597
G1 X132.556 Y116.95 E.65948
G1 X132.021 Y116.95 E.01597
G1 X116.95 Y132.021 E.63689
G1 X116.95 Y131.486 E.01597
G1 X131.486 Y116.95 E.6143
G1 X130.952 Y116.95 E.01597
G1 X116.95 Y130.952 E.59171
G1 X116.95 Y130.417 E.01597
G1 X130.417 Y116.95 E.56911
G1 X129.883 Y116.95 E.01597
G1 X116.95 Y129.883 E.54652
G1 X116.95 Y129.348 E.01597
G1 X129.348 Y116.95 E.52393
G1 X128.813 Y116.95 E.01597
G1 X116.95 Y128.813 E.50134
G1 X116.95 Y128.279 E.01597
G1 X128.279 Y116.95 E.47875
G1 X127.744 Y116.95 E.01597
M73 P4 R19
G1 X116.95 Y127.744 E.45616
G1 X116.95 Y127.209 E.01597
G1 X127.209 Y116.95 E.43356
G1 X126.675 Y116.95 E.01597
G1 X116.95 Y126.675 E.41097
G1 X116.95 Y126.14 E.01597
G1 X126.14 Y116.95 E.38838
G1 X125.606 Y116.95 E.01597
G1 X116.95 Y125.606 E.36579
G1 X116.95 Y125.071 E.01597
G1 X125.071 Y116.95 E.3432
G1 X124.536 Y116.95 E.01597
G1 X116.95 Y124.536 E.3206
G1 X116.95 Y124.002 E.01597
G1 X124.002 Y116.95 E.29801
G1 X123.467 Y116.95 E.01597
G1 X116.95 Y123.467 E.27542
G1 X116.95 Y122.933 E.01597
G1 X122.933 Y116.95 E.25283
G1 X122.398 Y116.95 E.01597
G1 X116.95 Y122.398 E.23024
G1 X116.95 Y121.863 E.01597
G1 X121.863 Y116.95 E.20765
G1 X121.329 Y116.95 E.01597
G1 X116.95 Y121.329 E.18505
G1 X116.95 Y120.794 E.01597
G1 X120.794 Y116.95 E.16246
G1 X120.259 Y116.95 E.01597
G1 X116.95 Y120.259 E.13987
G1 X116.95 Y119.725 E.01597
G1 X119.725 Y116.95 E.11728
G1 X119.19 Y116.95 E.01597
G1 X116.95 Y119.19 E.09469
G1 X116.95 Y118.656 E.01597
G1 X118.656 Y116.95 E.07209
G1 X118.121 Y116.95 E.01597
G1 X116.95 Y118.121 E.0495
G1 X116.95 Y117.586 E.01597
G1 X117.756 Y116.78 E.03408
G1 X117.045 Y116.976 F30000
;WIDTH:0.442592
G1 F15000
G1 X116.97 Y117.02 E.00273
G1 X117.05 Y117.054 E.00275
;LAYER_CHANGE
;Z:0.6
;HEIGHT:0.2
;BEFORE_LAYER_CHANGE
;0.6
G92 E0

G1 E-.78958 F1800
;WIPE_START
G1 F30000
G1 X116.97 Y117.02 E-.00523
G1 X117.045 Y116.976 E-.00519
;WIPE_END
EXCLUDE_OBJECT_END NAME=Cube_id_0_copy_0
;LAYER:3

;_SET_FAN_SPEED_CHANGING_LAYER
EXCLUDE_OBJECT_START NAME=Cube_id_0_copy_0
;G17
G3 Z1 I-.862 J.859
G1 X139.384 Y139.384 Z1
G1 Z.6
G1 E.8 F1800
;TYPE:Inner wall
;WIDTH:0.45
G1 F12000
G1 X116.616 Y139.384 E.73258
G1 X116.616 Y116.616 E.73258
G1 X139.384 Y116.616 E.73258
G1 X139.384 Y139.344 E.7313
G1 X139.791 Y139.791 F30000
G1 F12000
G1 X116.209 Y139.791 E.75878
G1 X116.209 Y116.209 E.75878
G1 X139.791 Y116.209 E.75878
G1 X139.791 Y139.751 E.75749
G1 X140.198 Y140.198 F30000
G1 F12000
G1 X115.802 Y140.198 E.78498
G1 X115.802 Y115.802 E.78498
G1 X140.198 Y115.802 E.78498
G1 X140.198 Y140.158 E.78369
G1 X140.59 Y140.59 F30000
SET_VELOCITY_LIMIT ACCEL=5000
;TYPE:Outer wall
;WIDTH:0.42
G1 F9600
G1 X115.41 Y140.59 E.7505
G1 X115.41 Y115.41 E.7505
G1 X140.59 Y115.41 E.7505
G1 X140.59 Y140.55 E.74931
G1 E-.728 F1800
;WIPE_START
G1 F30000
G1 X139.39 Y140.552 E-.072
;WIPE_END
G1 X139.33 Y132.92 Z1
G1 X139.22 Y118.984 Z1
G1 Z.6
G1 E.8 F1800
SET_VELOCITY_LIMIT ACCEL=10000
;TYPE:Internal solid infill
;WIDTH:0.420953
G1 F15000
G1 X137.186 Y116.95 E.08597
G1 X136.651 Y116.95 E.01597
G1 X139.051 Y119.349 E.1014
G1 X139.051 Y119.884 E.01597
G1 X136.116 Y116.95 E.12399
G1 X135.582 Y116.95 E.01597
G1 X139.051 Y120.418 E.14658
G1 X139.051 Y120.953 E.01597
G1 X135.047 Y116.95 E.16917
G1 X134.513 Y116.95 E.01597
G1 X139.051 Y121.487 E.19176
G1 X139.051 Y122.022 E.01597
G1 X133.978 Y116.95 E.21436
G1 X133.443 Y116.95 E.01597
G1 X139.051 Y122.557 E.23695
G1 X139.051 Y123.091 E.01597
G1 X132.909 Y116.95 E.25954
G1 X132.374 Y116.95 E.01597
G1 X139.051 Y123.626 E.28213
G1 X139.051 Y124.161 E.01597
G1 X131.839 Y116.95 E.30472
G1 X131.305 Y116.95 E.01597
G1 X139.051 Y124.695 E.32731
G1 X139.051 Y125.23 E.01597
G1 X130.77 Y116.95 E.34991
G1 X130.236 Y116.95 E.01597
G1 X139.051 Y125.764 E.3725
G1 X139.051 Y126.299 E.01597
G1 X129.701 Y116.95 E.39509
G1 X129.166 Y116.95 E.01597
G1 X139.051 Y126.834 E.41768
G1 X139.051 Y127.368 E.01597
G1 X128.632 Y116.95 E.44027
G1 X128.097 Y116.95 E.01597
G1 X139.051 Y127.903 E.46287
G1 X139.051 Y128.438 E.01597
G1 X127.563 Y116.95 E.48546
G1 X127.028 Y116.95 E.01597
G1 X139.051 Y128.972 E.50805
G1 X139.051 Y129.507 E.01597
G1 X126.493 Y116.95 E.53064
G1 X125.959 Y116.95 E.01597
G1 X139.051 Y130.041 E.55323
G1 X139.051 Y130.576 E.01597
G1 X125.424 Y116.95 E.57582
G1 X124.889 Y116.95 E.01597
G1 X139.051 Y131.111 E.59842
G1 X139.051 Y131.645 E.01597
G1 X124.355 Y116.95 E.62101
G1 X123.82 Y116.95 E.01597
G1 X139.051 Y132.18 E.6436
G1 X139.051 Y132.714 E.01597
G1 X123.286 Y116.95 E.66619
G1 X122.751 Y116.95 E.01597
G1 X139.051 Y133.249 E.68878
G1 X139.051 Y133.784 E.01597
G1 X122.216 Y116.95 E.71138
G1 X121.682 Y116.95 E.01597
G1 X139.051 Y134.318 E.73397
G1 X139.051 Y134.853 E.01597
